icons/gadget.svg

<?xml version="1.0" encoding="utf-8"?>
<!-- Generator: Adobe Illustrator 19.1.0, SVG Export Plug-In . SVG Version: 6.00 Build 0)  -->
<svg version="1.1" id="gadget" xmlns="http://www.w3.org/2000/svg" xmlns:xlink="http://www.w3.org/1999/xlink" x="0px" y="0px"
	 viewBox="0 0 14 14" style="enable-background:new 0 0 14 14;" xml:space="preserve">
<path d="M13.4334984,5.572l-0.8889999-0.1040001c-0.1219997-0.4640002-0.3050003-0.9070001-0.5380001-1.323l0.5469999-0.6919999
	c0.2030001-0.256,0.1809998-0.6210001-0.0469999-0.852l-1.0670004-1.067c-0.2299995-0.23-0.5959997-0.251-0.8520002-0.048
	l-0.671999,0.533C9.4794989,1.763,9.0134983,1.568,8.5244989,1.436L8.4234991,0.567C8.385499,0.243,8.1114988,0,7.7874985,0h-1.513
	c-0.3250003,0-0.598,0.243-0.6370001,0.567L5.5364981,1.436C5.0344982,1.5700001,4.5564985,1.774,4.1094985,2.039l-0.697-0.552
	c-0.256-0.204-0.6210001-0.1799999-0.852,0.048L1.4924984,2.605c-0.2309999,0.23-0.2509999,0.595-0.049,0.8510001
	l0.5830002,0.7369998c-0.2330002,0.421-0.4100001,0.869-0.5270001,1.336l-0.933,0.1070004
	c-0.324,0.0369997-0.567,0.3109999-0.567,0.6359997v1.513c0,0.3240004,0.244,0.5979996,0.567,0.6359997l0.9839999,0.1140003
	c0.124,0.4259996,0.296,0.8360004,0.5150002,1.2209997L1.4434984,10.54c-0.202,0.2559996-0.1799999,0.6199999,0.049,0.8509998
	l1.069,1.0699997c0.2309999,0.2299995,0.596,0.2510004,0.852,0.0489998l0.7779999-0.6149998
	c0.4000001,0.2299995,0.8260002,0.4099998,1.2690001,0.5369997l0.1170001,1.0010004C5.6154981,13.757,5.8894982,14,6.2134981,14
	h1.513c0.3240008,0,0.5990005-0.2440004,0.6360002-0.5690002l0.1120005-0.9659996
	C8.951499,12.3410006,9.4064989,12.1570005,9.8354988,11.915l0.7530003,0.5970001
	c0.2559996,0.2019997,0.6219997,0.1789999,0.8520002-0.0480003l1.0690002-1.0699997
	c0.2309999-0.2299995,0.2510004-0.5950003,0.0480003-0.8509998l-0.5860014-0.743
	c0.243-0.4210005,0.4329996-0.8690004,0.559-1.3389997l0.9020004-0.1040001
	c0.3260002-0.0380001,0.5679998-0.3120003,0.5679998-0.6360002V6.2090001
	C14.0014992,5.8839998,13.7594986,5.6100001,13.4334984,5.572z M7.0004983,11.6239996
	c-2.5539999,0-4.6239996-2.0710001-4.6239996-4.6240001S4.4464984,2.375,7.0004983,2.375s4.624001,2.0710001,4.624001,4.6240001
	C11.6244984,9.5539999,9.5544987,11.6239996,7.0004983,11.6239996z M4.1054983,9.0830002
	c-0.2239997,0.224-0.2239997,0.5869999,0,0.8109999c0.112,0.1120005,0.2589998,0.1680002,0.4060001,0.1680002
	c0.1469998,0,0.2940001-0.0559998,0.4060001-0.1680002l1.8829999-1.8839998L5.9894981,7.1999998L4.1054983,9.0830002z
	 M8.8134985,5.592l0.8199997-0.4239998l0.4300003-0.8299999L9.6634989,3.9380002L8.833499,4.368L8.4084988,5.1880002
	L7.4094982,6.1859999l0.4050002,0.4050002L8.8134985,5.592z M8.9924984,7.7690001l-0.0769997-0.007
	c-0.1400003,0-0.2729998,0.0289998-0.3959999,0.0749998L6.1644983,5.4809999c0.046-0.1240001,0.0739999-0.256,0.0739999-0.3959999
	l-0.007-0.0770001C6.1904984,4.4109998,5.6994982,3.9379997,5.0914984,3.9379997c-0.177,0-0.342,0.043-0.4920001,0.1149998
	l0.7620001,0.7620001c0.04,0.04,0.0679998,0.0869999,0.086,0.138c0.0500002,0.1350002,0.0229998,0.2940001-0.086,0.4029999
	C5.2874985,5.4299998,5.1894984,5.467,5.0914984,5.467c-0.0450001,0-0.0900002-0.0100002-0.1329999-0.026
	c-0.0500002-0.0190001-0.0970001-0.046-0.138-0.086L4.0594983,4.5929999C3.9884984,4.743,3.9444985,4.908,3.9444985,5.085
	c0,0.6069999,0.4729996,1.099,1.0699997,1.1399999l0.0770001,0.0079999c0.1399999,0,0.2730002-0.0289998,0.3959999-0.0739999
	l2.3540001,2.355c-0.0440001,0.1219997-0.073,0.2550001-0.073,0.3950005l0.0079999,0.0769997
	c0.04,0.5970001,0.5320001,1.0699997,1.1390004,1.0699997c0.177,0,0.3430004-0.0430002,0.4919996-0.1149998L8.6454992,9.1789999
	c-0.04-0.04-0.0679998-0.0880003-0.0869999-0.1370001C8.5084991,8.9069996,8.5354996,8.7480001,8.6454992,8.6389999
	c0.0740004-0.0749998,0.1719999-0.1120005,0.2700005-0.1120005c0.0450001,0,0.0900002,0.0100002,0.1330004,0.026
	C9.0985003,8.5719995,9.1464996,8.598999,9.1855001,8.6389999L9.9475002,9.401
	C10.0194998,9.2510004,10.0625,9.0860004,10.0625,8.9090004C10.0634985,8.302,9.5894985,7.8099999,8.9924984,7.7690001z"/>
</svg>

<?xml version="1.0" encoding="utf-8"?>

<!--
 * Copyright (c) 2015, WSO2 Inc. (http://www.wso2.org) All Rights Reserved.
 *
 * WSO2 Inc. licenses this file to you under the Apache License,
 * Version 2.0 (the "License"); you may not use this file except
 * in compliance with the License.
 * You may obtain a copy of the License at
 *
 * http://www.apache.org/licenses/LICENSE-2.0
 *
 * Unless required by applicable law or agreed to in writing,
 * software distributed under the License is distributed on an
 * "AS IS" BASIS, WITHOUT WARRANTIES OR CONDITIONS OF ANY
 * KIND, either express or implied. See the License for the
 * specific language governing permissions and limitations
 * under the License.
-->

<svg version="1.1" id="gadget" xmlns="http://www.w3.org/2000/svg" xmlns:xlink="http://www.w3.org/1999/xlink" x="0px" y="0px"
	 viewBox="0 0 14 14" enable-background="new 0 0 14 14" xml:space="preserve">
<path d="M13.433,5.572l-0.889-0.104c-0.122-0.464-0.305-0.907-0.538-1.323l0.547-0.692c0.203-0.256,0.181-0.621-0.047-0.852
	l-1.067-1.067c-0.23-0.23-0.596-0.251-0.852-0.048L9.915,2.019C9.479,1.763,9.013,1.568,8.524,1.436L8.423,0.567
	C8.385,0.243,8.111,0,7.787,0H6.274C5.949,0,5.676,0.243,5.637,0.567L5.536,1.436C5.034,1.57,4.556,1.774,4.109,2.039L3.412,1.487
	C3.156,1.283,2.791,1.307,2.56,1.535l-1.068,1.07C1.261,2.835,1.241,3.2,1.443,3.456l0.583,0.737
	c-0.233,0.421-0.41,0.869-0.527,1.336L0.566,5.636C0.242,5.673-0.001,5.947-0.001,6.272v1.513c0,0.324,0.244,0.598,0.567,0.636
	L1.55,8.535c0.124,0.426,0.296,0.836,0.515,1.221L1.443,10.54c-0.202,0.256-0.18,0.62,0.049,0.851l1.069,1.07
	c0.231,0.23,0.596,0.251,0.852,0.049l0.778-0.615c0.4,0.23,0.826,0.41,1.269,0.537l0.117,1.001C5.615,13.757,5.889,14,6.213,14
	h1.513c0.324,0,0.599-0.244,0.636-0.569l0.112-0.966c0.477-0.124,0.932-0.308,1.361-0.55l0.753,0.597
	c0.256,0.202,0.622,0.179,0.852-0.048l1.069-1.07c0.231-0.23,0.251-0.595,0.048-0.851L11.971,9.8
	c0.243-0.421,0.433-0.869,0.559-1.339l0.902-0.104c0.326-0.038,0.568-0.312,0.568-0.636V6.209
	C14.001,5.884,13.759,5.61,13.433,5.572z M7,11.624c-2.554,0-4.624-2.071-4.624-4.624S4.446,2.375,7,2.375
	c2.554,0,4.624,2.071,4.624,4.624C11.624,9.554,9.554,11.624,7,11.624z M4.105,9.083c-0.224,0.224-0.224,0.587,0,0.811
	c0.112,0.112,0.259,0.168,0.406,0.168c0.147,0,0.294-0.056,0.406-0.168L6.8,8.01L5.989,7.2L4.105,9.083z M8.813,5.592l0.82-0.424
	l0.43-0.83l-0.4-0.4l-0.83,0.43l-0.425,0.82L7.409,6.186l0.405,0.405L8.813,5.592z M8.992,7.769L8.915,7.762
	c-0.14,0-0.273,0.029-0.396,0.075L6.164,5.481C6.21,5.357,6.238,5.225,6.238,5.085L6.231,5.008c-0.041-0.597-0.532-1.07-1.14-1.07
	c-0.177,0-0.342,0.043-0.492,0.115l0.762,0.762c0.04,0.04,0.068,0.087,0.086,0.138c0.05,0.135,0.023,0.294-0.086,0.403
	C5.287,5.43,5.189,5.467,5.091,5.467c-0.045,0-0.09-0.01-0.133-0.026c-0.05-0.019-0.097-0.046-0.138-0.086L4.059,4.593
	c-0.071,0.15-0.115,0.315-0.115,0.492c0,0.607,0.473,1.099,1.07,1.14l0.077,0.008c0.14,0,0.273-0.029,0.396-0.074l2.354,2.355
	C7.797,8.636,7.768,8.769,7.768,8.909l0.008,0.077c0.04,0.597,0.532,1.07,1.139,1.07c0.177,0,0.343-0.043,0.492-0.115L8.645,9.179
	c-0.04-0.04-0.068-0.088-0.087-0.137c-0.05-0.135-0.023-0.294,0.087-0.403c0.074-0.075,0.172-0.112,0.27-0.112
	c0.045,0,0.09,0.01,0.133,0.026c0.05,0.019,0.098,0.046,0.137,0.086l0.762,0.762c0.072-0.15,0.115-0.315,0.115-0.492
	C10.063,8.302,9.589,7.81,8.992,7.769z"/>
</svg>
